src/animals-nature/animal-bird/1F425.svg

<?xml version="1.0" encoding="UTF-8"?>
<svg id="emoji" xmlns="http://www.w3.org/2000/svg" viewBox="0 0 72 72">
  <g id="grid">
    <path d="m68,4v64H4V4h64M72,0H0v72h72V0Z" fill="#b3b3b3"/>
    <path d="m12.923,10.9583h46.1539c1.0621,0,1.9231.861,1.9231,1.9231h0v46.1538c0,1.0621-.861,1.9231-1.9231,1.9231H12.9231c-1.0621,0-1.9231-.861-1.9231-1.9231h0V12.8813c0-1.062.861-1.923,1.923-1.923h0Z" fill="none" stroke="#00a5ff" stroke-miterlimit="10" stroke-width=".1"/>
    <rect x="16" y="4" width="40" height="64" rx="2.2537" ry="2.2537" fill="none" stroke="#00a5ff" stroke-miterlimit="10" stroke-width=".1"/>
    <rect x="4" y="16" width="64" height="40" rx="2.2537" ry="2.2537" fill="none" stroke="#00a5ff" stroke-miterlimit="10" stroke-width=".1"/>
    <circle cx="36" cy="36" r="29" fill="none" stroke="#00a5ff" stroke-miterlimit="10" stroke-width=".1"/>
  </g>
  <g id="color">
    <path d="m36,32c8.2843,0,12.8894,5.3033,15,11,1.5787,4.2609-5.4843,11.7165-15.0067,11.0122-9.3743-.6933-16.1286-5.0122-14.9933-11.0122,1.1294-5.9692,6.7157-11,15-11Z" fill="#fcea2b" stroke="#fcea2b" stroke-miterlimit="10" stroke-width="1.8"/>
    <path d="m42.25,36c2,9,9,9,9,9,2-6-6-11-6-11,7-6,1-10,1-10,0-10-10.375-11-10.375-11-10.375,2-9.625,11-9.625,11-6,4,.625,9.75.625,9.75,0,0-7.625,4.25-5.625,11.25,0,0,8,0,8-9" fill="#fcea2b"/>
    <path d="m36.6219,26.6032s5.9251-.2907,0,5.2324c0,0-5.9251-5.2324,0-5.2324Z" fill="#f1b31c"/>
  </g>
  <g id="line">
    <path d="m23,49s4.7974,5.0246,13.48,5.0122c8.52-.0122,12.52-5.0122,12.52-5.0122" fill="none" stroke="#000" stroke-linecap="round" stroke-linejoin="round" stroke-width="2"/>
    <line x1="33.625" y1="13.5" x2="31.125" y2="11.625" fill="none" stroke="#000" stroke-linecap="round" stroke-linejoin="round" stroke-width="2"/>
    <line x1="35.125" y1="12.875" x2="34.125" y2="10.75" fill="none" stroke="#000" stroke-linecap="round" stroke-linejoin="round" stroke-width="2"/>
    <line x1="37.125" y1="13.25" x2="37.25" y2="10" fill="none" stroke="#000" stroke-linecap="round" stroke-linejoin="round" stroke-width="2"/>
    <polyline points="31.5958 53.7306 30.625 58.25 27.5 60" fill="none" stroke="#000" stroke-linecap="round" stroke-linejoin="round" stroke-width="2"/>
    <line x1="33.5" y1="59" x2="30.625" y2="58.25" fill="none" stroke="#000" stroke-linecap="round" stroke-linejoin="round" stroke-width="2"/>
    <polyline points="39.9042 53.7306 40.875 58.25 44 60" fill="none" stroke="#000" stroke-linecap="round" stroke-linejoin="round" stroke-width="2"/>
    <line x1="38" y1="59" x2="40.875" y2="58.25" fill="none" stroke="#000" stroke-linecap="round" stroke-linejoin="round" stroke-width="2"/>
    <circle cx="32.25" cy="23" r="2"/>
    <circle cx="40.25" cy="23" r="2"/>
    <path d="m36.3719,26.6032s5.9132-.2907,0,5.2324c0,0-5.9132-5.2324,0-5.2324Z" fill="none" stroke="#000" stroke-linecap="round" stroke-linejoin="round" stroke-width="2"/>
    <path d="m42,36c2,9,9,9,9,9,2-6-6-11-6-11,7-6,1-10,1-10,0-10-10.375-11-10.375-11-10.375,2-9.625,11-9.625,11-6,4,.625,9.75.625,9.75,0,0-7.625,4.25-5.625,11.25,0,0,8,0,8-9" fill="none" stroke="#000" stroke-linecap="round" stroke-linejoin="round" stroke-width="2"/>
  </g>
</svg>

<svg id="emoji" viewBox="0 0 72 72" xmlns="http://www.w3.org/2000/svg">
  <g id="grid">
    <path fill="#b3b3b3" d="M68,4V68H4V4H68m4-4H0V72H72V0Z"/>
    <path fill="none" stroke="#00a5ff" stroke-miterlimit="10" stroke-width="0.1" d="M12.923,10.9583H59.0769A1.9231,1.9231,0,0,1,61,12.8814V59.0352a1.9231,1.9231,0,0,1-1.9231,1.9231H12.9231A1.9231,1.9231,0,0,1,11,59.0352V12.8813A1.923,1.923,0,0,1,12.923,10.9583Z"/>
    <rect x="16" y="4" rx="2.2537" width="40" height="64" fill="none" stroke="#00a5ff" stroke-miterlimit="10" stroke-width="0.1"/>
    <rect x="16" y="4" rx="2.2537" width="40" height="64" transform="translate(72) rotate(90)" fill="none" stroke="#00a5ff" stroke-miterlimit="10" stroke-width="0.1"/>
    <circle cx="36" cy="36" r="29" fill="none" stroke="#00a5ff" stroke-miterlimit="10" stroke-width="0.1"/>
  </g>
  <g id="color">
    <ellipse cx="36" cy="43" rx="15" ry="11" fill="#FCEA2B" stroke="#FCEA2B" stroke-miterlimit="10" stroke-width="1.8"/>
    <path fill="#FCEA2B" stroke="none" d="M42.25,36c2,9,9,9,9,9c2-6-6-11-6-11c7-6,1-10,1-10c0-10-10.375-11-10.375-11C25.5,15,26.25,24,26.25,24 c-6,4,0.625,9.75,0.625,9.75S19.25,38,21.25,45c0,0,8,0,8-9"/>
    <path fill="#F1B31C" stroke="none" d="M36.6219,26.6032c0,0,5.9251-0.2907,0,5.2324C36.6219,31.8356,30.6968,26.6032,36.6219,26.6032z"/>
  </g>
  <g id="hair"/>
  <g id="skin"/>
  <g id="skin-shadow"/>
  <g id="line">
    <path fill="none" stroke="#000000" stroke-linecap="round" stroke-linejoin="round" stroke-miterlimit="10" stroke-width="2" d="M23,49c0,0,4.7974,5.0246,13.48,5.0122C45,54,49,49,49,49"/>
    <line x1="33.625" x2="31.125" y1="13.5" y2="11.625" fill="none" stroke="#000000" stroke-linecap="round" stroke-linejoin="round" stroke-miterlimit="10" stroke-width="2"/>
    <line x1="35.125" x2="34.125" y1="12.875" y2="10.75" fill="none" stroke="#000000" stroke-linecap="round" stroke-linejoin="round" stroke-miterlimit="10" stroke-width="2"/>
    <line x1="37.125" x2="37.25" y1="13.25" y2="10" fill="none" stroke="#000000" stroke-linecap="round" stroke-linejoin="round" stroke-miterlimit="10" stroke-width="2"/>
    <polyline fill="none" stroke="#000000" stroke-linecap="round" stroke-linejoin="round" stroke-miterlimit="10" stroke-width="2" points="31.3458,53.7306 30.375,58.25 27.25,60"/>
    <line x1="33.25" x2="30.25" y1="59" y2="58" fill="none" stroke="#000000" stroke-linecap="round" stroke-linejoin="round" stroke-miterlimit="10" stroke-width="2"/>
    <polyline fill="none" stroke="#000000" stroke-linecap="round" stroke-linejoin="round" stroke-miterlimit="10" stroke-width="2" points="40.1542,53.7306 41.125,58.25 44.25,60"/>
    <line x1="38.25" x2="41.25" y1="59" y2="58" fill="none" stroke="#000000" stroke-linecap="round" stroke-linejoin="round" stroke-miterlimit="10" stroke-width="2"/>
    <circle cx="32.25" cy="23" r="2" fill="#000000" stroke="none"/>
    <circle cx="40.25" cy="23" r="2" fill="#000000" stroke="none"/>
    <path fill="none" stroke="#000000" stroke-linecap="round" stroke-linejoin="round" stroke-miterlimit="10" stroke-width="2" d="M36.3719,26.6032c0,0,5.9132-0.2907,0,5.2324C36.3719,31.8356,30.4587,26.6032,36.3719,26.6032z"/>
    <path fill="none" stroke="#000000" stroke-linecap="round" stroke-linejoin="round" stroke-miterlimit="10" stroke-width="2" d="M42,36c2,9,9,9,9,9c2-6-6-11-6-11c7-6,1-10,1-10c0-10-10.375-11-10.375-11C25.25,15,26,24,26,24c-6,4,0.625,9.75,0.625,9.75 S19,38,21,45c0,0,8,0,8-9"/>
  </g>
</svg>
